X:1
T:Buxtehude - Chaconne in C Minor. {Professional production full score.}
T:Praeludium in E Minor BuxWV 143
%%score { ( 1 4 5 ) | ( 2 6 7 ) | 3 }
L:1/8
Q:1/4=80
M:4/4
K:G
V:1 treble nm="Pipe Organ" snm="Org."
V:4 treble 
V:5 treble 
V:2 bass 
V:6 bass 
V:7 bass 
V:3 bass-8 
V:1
 z8 | z8 | z4 z/ E/^D/E/ B,/B/A/B/ | G/E/B/^D/ E/E/A/D/ E/E/G/D/ E/E/F/D/ | %4
 E/G/F/G/ z/ G/F/G/ z/ B/A/B/ z/ e/^d/e/ | z/ g/f/g/ z/ g/f/g/ z/ e/=d/c/ B/c/B/A/ | %6
 B/A/G/F/ G/F/E/^D/ E/F/G/A/ G/A/B/F/ | G/E/B/^D/ E/E/A/D/ E/E/G/D/ E/E/F/D/ | %8
 E/e/^d/e/ z/ G/F/G/ z/ G/F/G/ z/ B/A/B/ | G/A/G/F/ G/F/E/D/ [B,E]4 | z8 | %11
 z/ e/b/^d/ e/e/g/d/ e/e/f/d/ e/f/g/a/ | bg/f/ g/g/f/e/ d/d/e/f/ ^d/e/f/a/ | %13
 gf/b/ g/ z/ z/ a/ g/ z/ z/ a/ g/ z/ z/ g/ | fMe d/ z/ z/ e/ d/ z/ z/ e/ d/ z/ z/ B/ | %15
 Bb/a/ g/f/e/^d/ e/b/a/b/ ga/g/ | f/g/a/^d/ e/B/A/B/ Gg/f/ e/f/g/d/ | %17
 e/G/A/B/ GB/A/ G/F/E/^D/ E/B/A/B/ | Gg/f/ e/f/g/f/ gf/f/ fe/f/ | ^d/^c/B/A/ Bc/c/ BA/B/ A/G/A/F/ | %20
 GF/F/ F z z G/G/ G z | z G/G/ GG/G/ GATF>E | !breath!E2!mp! e2 dddd | ^d3 d e2 B2 | %24
 ed/c/dd- dc/B/cc | B8- | BA/G/AA- AG/F/GA | B6 d2- | de/d/ee e3 A- | AG/F/GPA B4- | %30
 Bc/B/AA- AG/F/^GG | A2 a2 gggg | ^g3 g a2 ef- | fe/d/ee- ed/c/BB | c3 B/c/ B3 c/B/ | A4 ac'/b/aa | %36
 g8 | a4 gb/a/gg | f2 z2 z4 | z2 e2 dddd | ^d3 d e4- | e8 | ^d2 ec B4- | B4 A4 | G2 B2 AAAA | %45
 ^A3 A B2 (b2- | b)a/g/aa f2 f2- | f4 e2 e2 | f4- ff/e/ff | e4- ed/c/dd | %50
 ce/d/ c/d/B/d/ c/e/c/B/ A/B/^G/B/ | A/c/A/B/ Mc2 B2- Bb/a/ | %52
 g/a/f/a/ g/b/g/f/ e/f/^d/f/ e/g/e/d/ | Me2 ^dB/A/ G/A/F/A/ G/B/G/F/ | E/F/^D/F/ E/G/E/D/ E4- | %55
 E4-[Q:1/4=60] E^D/^C/DPD |[M:3/4] !fermata!E4[Q:1/4=140]!f! e2 | d^cdB^dd | e2 Be d2 | cBcABB | %60
 B6 | B2 e2 z2 | z2 z2 b2 | gfge^gg | a2 z2 z2 | a2 ea g2 | e^d e3 =d | c4 B2 | B6- | B2 z2 z2 | %70
 z2 z2 e2 | cBcA^cc | d2 z2 z2 | z eBe d2 | d4 c2 | B4 B2 | z2 z2 E2 | D^CDB,^DD | E z z2 z2 | %79
 A2 EA G2 | F6 | E4 z2 | z2 z2 B2 | AGAF^AA | b2 fb a2 | g2 z2 z2 |!fff! fbfbab | g4 fg | f6 | %89
 e4 fe | ^d2 z2 z2 | Me2 z2[Q:1/4=80] z2[Q:1/4=100] |[M:4/4][Q:1/4=40]"^Adagio" ^d2 z2 z2!p! =d2 | %93
 c4- c2- c/B/c/d/ | B2 z2 z2[Q:1/4=80]!f! b2 | ^d z z2 z2 z a | ^d z z2 z2[Q:1/4=60] z/ f/g/a/ | %97
 Tf3 e e z z!fff! d |[Q:1/4=100] ^G z z2 z E/^D/ E/F/G/A/ | ^G/E/A/B/ c/d/c/B/ c/B/A/B/ A/F/MG | %100
 z2 z B/A/ B/c/d/e/ d/c/d/^G/ | e/d/c/B/ c/B/c/F/ d/c/B/A/ B/A/B/E/ | %102
 c/B/A/^G/ A/G/A/^D/ B/A/G/F/ G/F/G/E/ | z2 B/A/B- B4- | d/c/e c/B/c B/A/B[Q:1/4=95] A/^G/A | %105
[Q:1/4=90] ^G/F/G[Q:1/4=85] z2 A2[Q:1/4=80] ^D/^C/[Q:1/4=70]PD | %106
 !fermata!E8[Q:1/4=60][Q:1/4=20][Q:1/4=10] |] %107
V:2
 z8 | z8 | z8 | z8 | z/ B,/A,/B,/ E,/[I:staff -1]E/^D/E/[I:staff +1] x4 | x8 | %6
 x2[I:staff -1] E/[I:staff +1]A,/G,/F,/ G,/A,/B,/C/ B,/F,/G,/^D,/ | %7
 E,/B,/G,/F,/ G,/B,/F,/A,/ G,/C/B,/A,/ G,/B,/A,/F,/ | G, z E,/[I:staff -1]E/^D/E/[I:staff +1] x4 | %9
 x4 [E,G,]4 | z8 | z8 | z8 | z/[K:treble] E/B/^D/ E/E/G/D/ E/E/F/D/ E/F/G/A/ | %14
 BG/F/ F/ z/ z/ F/ F/ z/ z/ F/ F/ z/ z/ F/ | E z z2 GF EF/E/ | ^D/E/F/A/ GF EB/A/ G/A/B/A/ | %17
 G/E/F/[K:bass]F,/ G,G,/A,/ B,/A,/G,/F,/ G,F, | G,E,/F,/ G,/A,/B,/A,/ B,^C B, z | %19
 z2 E2 ^D^C/D/ C/B,/C/D/ | B,^C B, z z B, =C z | z CC^C B,3 A, | ^G,2 z2 z4 | z8 | z8 | %25
 z2 E2 DDDD | ^D3 D E2 MC2 | B,4 B,4- | B,4 A,4 | B,4 B,4- | B,4 B,4 | A,4 B,2 z2 | %32
 z4 z2[K:treble] A2 | GGGG ^G>A PG2 | A4 z2 z[K:bass] G, | E,E,E,E, F,3 F, | G,8 | E,2 A,2 B,4- | %38
 B,8- | B,4 z2 G,2- | G,F,/E,/F,F, F,4 | B,4 z4 | F,2 G,2 F,2 A,2- | A,G,/F,/G,A, B,>A,B,B, | %44
 B,4 C2 ^C2- | C4 B,2 D2 | E2 z2 z2[K:treble] B2- | BA/G/AA G4 | F8 | G2[K:bass] B,2 E4 | %50
 E z z2 z x3 | x2 A,2 B,3 z | x8 | B,2 B, z z2 z B,/A,/ | G,/A,/F,/A,/ G,/B,/G,/F,/ G,4- | %55
 G,F,/E,/F,F, G,F,/E,/F,PF, |[M:3/4] [E,^G,]4 z2 | z6 | z6 | z6 | z2 z2 B,2 | G,F,G,E,^G,G, | %62
 A,2 B,4- | B,6 | C2 D2 B,2 | C2 z2 z2 | z6 | z2 z2 E2 | D^CDB,^DD | E4 F2 | E4 DE | E2 z2 E2 | %72
 D^CDB,^DD | E4 z2 | B,2 G,B, A,2 | G,4 z B, | A,G,A,F,^A,A, | B,6 | E,F,G,A, B,2 | A,4 z2 | %80
 B,2 F,B, A,2 | G,2 z2 B,A, | G,F,G,E,^G,G, | A,4 F,2 | F,6 | E,2 z2 z2 | F, z z4 | z6 | z6 | %89
 z EB,E^DE | z B,F,B,A,B, | [G,E]2 z2 z2 |[M:4/4] B,2 z2 z2 B,2 | C3 D G,3 z | G,2 z2 z4 | %95
 B, z z2 z4 | B, z z2 z2 ^DE- | E2 P^D2 E z z2 | E, z z2 z4 | %99
 z2 z A,/^G,/ A,/B,/C/D/ C/A,/[I:staff -1]E | %100
[I:staff +1] E,/F,/^G,/A,/ G,/E,/G,/F,/ G,/A,/B,/C/ B,/A,/PB, | z2 A,/^G,/A, z2 G,/F,/G, | %102
 z2 F,/E,/F, z2 E,/^D,/E, | x8 | (E6 C/)B,/C | B,/A,/B, E,/^D,/E, z2 A,2 | %106
 ^G,2 A,2- A,G,/MF,/ !fermata!G,2 |] %107
V:3
!fff! E,,2- E,,/E,/^D,/E,/ B,,/B,/A,/B,/ E,G,/F,/ | %1
 G,/E,/B,/^D,/ E,/E,/A,/D,/ E,/E,/G,/D,/ E,/E,/F,/D,/ | E,/B,/G,/B,/ E,/G,/B,,/E,/ E,,4- | E,,8- | %4
 E,,8- | E,,8- | E,,8- | E,,8- | E,,8- | E,,4- E,,/E,/^D,/E,/ B,,/G,/F,/G,/ | %10
 E,/B,/A,/B,/ E,/G,/F,/G,/ E,/B,/A,/B,/ E,/G,/B,,/E,/ | E,,2 z2 z4 | z8 | z8 | %14
 z/ B,,/E,/^A,,/ B,,/B,,/D,/A,,/ B,,/B,,/^C,/A,,/ B,,/B,,/C,/^D,/ | E, z z2 G,^D, E, z | %16
 z2 G,^D, E, z z2 | G,^D, E, z z2 G,D, | E, z z2 E,^A,, B,, z | z2 E,^A,, B,, z z2 | %20
 E,^A,, B,, z z G,, =A,, z | z A,,A,,^A,, B,,4 | E,,2 z2 z4 | z8 | z8 | z8 | z8 | z2 B,2 G,G,G,G, | %28
 ^G,3 G, A,4 | z2 E,2 D,D,D,D, | ^D,3 D, E,4 | A,,4 E,,4 | B,,4 A,,2 z2 | z4 z2 E,2- | %34
 E,D,/C,/D,D, G,,4 | C,4 D,4 | G,,8- | G,,2 F,,2 E,,2 E,2 | D,D,D,D, ^D,3 D, | E,4 z4 | %40
 z2 B,,2 G,,G,,G,,G,, | ^G,,3 G,, A,,4- | A,,2 G,,A,, B,,4- | B,,8 | E,,4 A,,4 | F,,4 B,,4 | %46
 C,4 D,4 | B,,4 E,,2 z2 | z4 z2 B,,2 | G,,G,,G,,G,, ^G,,3 G,, | A,, z z2 z4 | z8 | z8 | %53
 G,,>A,, B,, z z4 | z4 G,,3 A,, | B,,8 |[M:3/4] E,,4 z2 | z6 | z6 | z6 | z6 | z2 z2 E,2 | %62
 D,^C,D,B,,^D,D, | E,4 B,,2 | A,,2 ^G,,4 | A,,2 C,2 E,2 | E,,2 z2 z2 | z6 | z6 | E,2 B,,E, D,2 | %70
 E,6 | A,,6 | B,,6 | C,4 F,,2 | G,,2 z2 z2 | E,2 B,,E, D,2 | ^C,3 D, C,2 | B,,4 z2 | z6 | z6 | z6 | %81
 E,2 B,,E, D,2 | E,6 | F,4 E,2 | D,4 ^D,2 | E,2 E,,E,^D,E, | B,, z z4 | z6 | z6 | z6 | z6 | %91
 z E,B,,E,^D,E, |[M:4/4] B,,2 z2 z2 G,,2- | G,,3 F,, G,,4- | G,,2 z2 z4 | z B,,/^A,,/ B,, z z4 | %96
 z B,,/^A,,/ B,, z z4 | z8 | z E,/^D,/ E,B,,/^A,,/ B,,E,,- E,,2- | E,,8- | E,,8- | E,,8- | E,,8- | %103
 E,,8- | E,,8- | E,,8- | !fermata!E,,8 |] %107
V:4
 x8 | x8 | x8 | x8 | x4 B,/G/F/G/ E/G/F/G/ | E/B/A/B/ E/e/^d/e/ B/c/B/A/ G/A/G/F/ | G/F/E/^D/ x6 | %7
 x8 | x4 B,/E/^D/E/ E/G/F/G/ | E/F/E/D/ E/[I:staff +1]A,/G,/F,/ x4 | x8 |[I:staff -1] z8 | %12
 z/ B/e/^A/ B/B/d/A/ B/B/^c/A/ B/c/=A/B/ | e^d/f/ e/ z/ z/ f/ e/ z/ z/ f/ e/ z/ z/ e/ | %14
 dB/^c/ B/ z/ z/ c/ B/ z/ z/ c/ B/ z/ z/ A/ | G z z2 B2 B z | z2 B z B z z2 | B z B z z2 B z | %18
 B z z2 E2 ^D^C/D/ | B,/^C/^D/F/ GF F z z2 | E2 ^D z z E/E/ E z | z E/E/ EE/E/ E2 ^D2 | B,2 z2 z4 | %23
 z2 B2 GGGG | ^G3 G A2 A2- | AG/F/GG F4- | F4 E4- | E^D/^C/DD E2 =D2- | D4- DC/B,/CC | D2 PE2 F4- | %30
 F4 E2 D2- | D^C/B,/C^D E2 e2- | ed/c/dd- dc/B/cc | B4- B>A E2- | E2 PF2 GF/E/ D2 | C8- | %36
 CB,/A,/B,C D4 | E2 F2 G>F E2 | B2 F6 | E4 [FA]2 [GB]2 | z4 z2 E2- | %41
 ED/C/DD- DC/B,/C[I:staff +1]A, |[I:staff -1] B3 c F4- | FE/^D/EE- ED/^C/DD | E4 E4- | E4 D2 z2 | %46
 z2 e2 dddd | ^d3 d eB/A/BB | B8- | B8 | A z z2 z E/D/ C/D/B,/D/ | %51
 C/E/C/[I:staff +1]B,/[I:staff -1] [EA]2 [^DF]3 z | z2 z B/A/ G/A/F/A/ G/B/G/F/ | [GB]2 [FB] z z4 | %54
 z4 B,4- | B,8- |[M:3/4] B,4 z2 | z2 z2 B2 | GFGE^GG | A^G A2 G2 | D^CDB,^DD | E6 | F6 | E4 D2 | %64
 E2 z2 z2 | E2 z2 z2 | GFGE^GG | A4 z2 | B2 FB A2 | G2 z2 B2 | GFGE^GG | A2 z2 z2 | B2 FB A2 | %73
 G4 A2 | G4- GF | G4 x2 | x6 | x6 | B,^D E3 =D | C2 ^C2 B,C | D4 ^C^D | B,4 z2 | E2 B,E D2 | ^C6 | %84
 D4 B,2 | E2 z2 z2 | [B^d] z z2 z2 | z eBe^de | z BFBAB | G4 AG | [FB]2 z2 z2 | [GB]2 z2 z2 | %92
[M:4/4] [FB]2 z2 z2 [GB]2 | E3 D E2- E/D/E/F/ | D2 z2 z4 | [FB] z z2 z4 | [FB] z z2 z2 B2- | %97
 B4 [GB] z z2 | [B,E] z z2 z4 | x8 | x8 | x8 | x8 | E/^D/E- E2 ^G/F/G- E/D/(E | %104
 [GB]2) A/^G/A G/F/G E2- | E2 z2 x4 | B,2 MC2 !fermata!B,4 |] %107
V:5
 x8 | x8 | x8 | x8 | x8 | x8 | x8 | x8 | x8 | x8 | x8 | x8 | x8 | x8 | x8 | x8 | x8 | x8 | x8 | %19
 x8 | x8 | x8 | x8 | x8 | x8 | x8 | x8 | x8 | x8 | x8 | x8 | x8 | x8 | x8 | x8 | x8 | z2 d2 BBBB | %37
 ^c2 ^d2 e4 | f2 z2 Bc/B/AA- | AG/F/ GG x4 | A2 B2 B4- | B4 A3 c | x8 | x8 | x8 | x8 | x8 | x8 | %48
 x8 | x8 | x8 | x8 | x8 | x8 | x8 | x8 |[M:3/4] x6 | x6 | x6 | z2 z2 E2 | F6 | G4 B2 | B4 z2 | %63
 x2 z4 | e2 Be d2 | c2 z2 B2 | x6 | x6 | x6 | x6 | x6 | x6 | x6 | x6 | x6 | x6 | x6 | x6 | x6 | %79
 x6 | x6 | x6 | x6 | x6 | B6- | B2 z2 z2 | x6 | x6 | d4 ^cd | B4 B2 | x6 | x6 |[M:4/4] x8 | %93
 A4 G3 z | G2 z2 x4 | x8 | x8 | x8 | x8 | x8 | x8 | x8 | x8 | x6 G2- | x8 | x8 | x8 |] %107
V:6
 x8 | x8 | x8 | x8 | x8 | x8 | x8 | x8 | x8 | x8 | x8 | x8 | x8 | x/[K:treble] x15/2 | x8 | x8 | %16
 x8 | x3/2[K:bass] x13/2 | x8 | x8 | x8 | x8 | x8 | x8 | x8 | x8 | x8 | x8 | x8 | x8 | x8 | x8 | %32
 x6[K:treble] x2 | x8 | x7[K:bass] x | x8 | x8 | x8 | x8 | x8 | x8 | x8 | z2 E,2 D,D,^D,D, | %43
 E,4 F,4 | G,4 E,4 | F,4 F,4 | E,2 z2 z4[K:treble] | z4 z2 E2 | DDDD ^D3 D | E2[K:bass] E,2 B,4 | %50
 C x7 | x8 | x8 | x8 | x8 | x8 |[M:3/4] x6 | x6 | x6 | x6 | x6 | x6 | x6 | x6 | x6 | x6 | x6 | %67
 A,2 E,A, G,2 | B,6- | B,4 B,2 | B,4 z2 | A,2 E,A, G,2 | F,6 | E,4 A,C | x6 | x4 F,2 | E,3 F, E,2 | %77
 z2 z2 B,,2 | G,,2 E,,2 ^G,,G,, | A,,6 | B,,4 z2 | x6 | x6 | x6 | x6 | x6 | x6 | x6 | x6 | x6 | %90
 x6 | x6 |[M:4/4] x8 | x8 | x8 | x8 | x6 B,2- | B,4 B, x3 | x8 | z4 z2 z E,/^D,/ | x8 | x8 | x8 | %103
 x8 | x8 | x4 F,/E,/F,- F,2 | x8 |] %107
V:7
 x8 | x8 | x8 | x8 | x8 | x8 | x8 | x8 | x8 | x8 | x8 | x8 | x8 | x/[K:treble] x15/2 | x8 | x8 | %16
 x8 | x3/2[K:bass] x13/2 | x8 | x8 | x8 | x8 | x8 | x8 | x8 | x8 | x8 | x8 | x8 | x8 | x8 | x8 | %32
 x6[K:treble] x2 | x8 | x7[K:bass] x | x8 | x8 | x8 | x8 | x8 | x8 | x8 | x8 | x8 | x8 | x8 | %46
 x6[K:treble] x2 | x8 | x8 | x2[K:bass] x6 | x8 | x8 | x8 | x8 | x8 | x8 |[M:3/4] x6 | x6 | x6 | %59
 x6 | x6 | x6 | x6 | x6 | x6 | x6 | x6 | x6 | x6 | x6 | x6 | x6 | x6 | x6 | x6 | x6 | x6 | F,6 | %78
 x6 | x6 | x6 | x6 | x6 | x6 | x6 | x6 | x6 | x6 | x6 | x6 | x6 | x6 |[M:4/4] x8 | x8 | x8 | x8 | %96
 x8 | x8 | x8 | x8 | x8 | x8 | x8 | x8 | x8 | x8 | x8 |] %107

